packages/calcite-ui-icons/icons/mosaic-method-last-16.svg

<?xml version="1.0" encoding="UTF-8"?><svg id="icons" xmlns="http://www.w3.org/2000/svg" viewBox="0 0 16 16"><defs><style>.cls-1{fill:none;}.cls-2{opacity:.5;}.cls-3{opacity:.25;}</style></defs><path class="cls-3" d="M4,14h1v1h-1v-1ZM2,12.00067v.99866c.00018.00024.00024.00037.00043.00067h.99957v-1h-.99957c-.00018.00024-.00024.00037-.00043.00067ZM4,12.00067v.99866c.00018.00024.00024.00037.00043.00067h.99957v-1h-.99957c-.00018.00024-.00024.00037-.00043.00067ZM6,7.00067v.99866c.00018.00024.00024.00037.00043.00067h.99957v-1h-.99957c-.00018.00024-.00024.00037-.00043.00067ZM8,7.00067v.99866c.00018.00024.00024.00037.00043.00067h.99957v-1h-.99957c-.00018.00024-.00024.00037-.00043.00067ZM8,10h1v-1h-1v1ZM12,5h1v-1h-1v1ZM12.00043,2c-.00018.00024-.00024.00037-.00043.00067v.99866c.00018.00024.00024.00037.00043.00067h.99957v-1h-.99957ZM10,2.00067v.99866c.00018.00024.00024.00037.00043.00067h.99957v-1h-.99957c-.00018.00024-.00024.00037-.00043.00067Z"/><path d="M12,13h3v1h-3v1l-2-1.5,2-1.5v1ZM16,1v5h-7V1h7ZM11,4h-1v1h1v-1ZM11,2h-1v1h1v-1ZM13,4h-1v1h1v-1ZM13,2h-1v1h1v-1ZM15,4h-1v1h1v-1ZM15,2h-1v1h1v-1ZM7,12h1v4H1v-5h3v2h1v-1h1v1h1v-1ZM3,14h-1v1h1v-1ZM3,12h-1v1h1v-1ZM5,14h-1v1h1v-1ZM7,14h-1v1h1v-1ZM12,11h-7v-5h3v2h1v-1h1v1h1v-1h1v4ZM7,9h-1v1h1v-1ZM7,7h-1v1h1v-1ZM9,9h-1v1h1v-1ZM11,9h-1v1h1v-1Z"/><path class="cls-2" d="M6,14h1v1h-1v-1ZM10,10h1v-1h-1v1ZM14,4v1h1v-1h-1Z"/><rect class="cls-1" width="16" height="16"/></svg>

<svg xmlns="http://www.w3.org/2000/svg" viewBox="0 0 16 16"><path d="M4 14h1v1H4v-1zm-2-2v1h1v-1H2zm2 0v1h1v-1H4zm2-5v1h1V7H6zm2 0v1h1V7H8zm0 3h1V9H8v1zm4-5h1V4h-1v1zm0-3v1h1V2h-1zm-2 0v1h1V2h-1z" opacity=".25"/><path d="M12 13h3v1h-3v1l-2-1.5 2-1.5v1zm4-12v5H9V1h7zm-5 3h-1v1h1V4zm0-2h-1v1h1V2zm2 2h-1v1h1V4zm0-2h-1v1h1V2zm2 2h-1v1h1V4zm0-2h-1v1h1V2zM7 12h1v4H1v-5h3v2h1v-1h1v1h1v-1zm-4 2H2v1h1v-1zm0-2H2v1h1v-1zm2 2H4v1h1v-1zm2 0H6v1h1v-1zm5-3H5V6h3v2h1V7h1v1h1V7h1v4zM7 9H6v1h1V9zm0-2H6v1h1V7zm2 2H8v1h1V9zm2 0h-1v1h1V9z"/><path d="M6 14h1v1H6v-1zm4-4h1V9h-1v1zm4-6v1h1V4h-1z" opacity=".5"/><path fill="none" d="M0 0h16v16H0z"/></svg>
